X: 2
T: The Cock And The Hen
R: slip jig
M: 9/8
L: 1/8
K: Bmin
~F3 FEF c2 A | ~F3 FEF AFE | ~F3 FEF c2 d | ecA BAF AFE :|ecA ABc d2 f | ecA ABc BAF | ecA ABc d2 B | cBA BAF AFE :|


Tune 93	Setting 93

